care/src/image/Frame4.svg

<svg width="66" height="95" viewBox="0 0 66 95" fill="none" xmlns="http://www.w3.org/2000/svg">
<g clip-path="url(#clip0_1_167)">
<path d="M63.5779 0H3.17507C1.93279 0 0.928558 1.02822 0.928558 2.30017V92.7074C0.928558 93.9794 1.93279 95.0076 3.17507 95.0076H63.5779C64.8202 95.0076 65.8244 93.9794 65.8244 92.7074V2.30017C65.817 1.02822 64.8127 0 63.5779 0Z" fill="url(#paint0_linear_1_167)"/>
<path d="M59.613 4.09766H7.13249C5.92741 4.09766 4.9455 5.10303 4.9455 6.34451V81.0923C4.9455 82.3338 5.92741 83.3316 7.13249 83.3316H59.613C60.8256 83.3316 61.8 82.3262 61.8 81.0923V6.34451C61.8 5.10303 60.8256 4.09766 59.613 4.09766Z" fill="white"/>
<path d="M44.1032 39.636H22.6498C21.6678 39.636 20.8719 38.8211 20.8719 37.8157V15.8422C20.8719 14.8369 21.6678 14.0219 22.6498 14.0219H44.1032C45.0851 14.0219 45.881 14.8369 45.881 15.8422V37.8081C45.881 38.8135 45.0851 39.636 44.1032 39.636Z" fill="url(#paint1_linear_1_167)"/>
<path d="M33.3765 92.5475C35.2006 92.5475 36.6793 91.0335 36.6793 89.1658C36.6793 87.2981 35.2006 85.7841 33.3765 85.7841C31.5524 85.7841 30.0737 87.2981 30.0737 89.1658C30.0737 91.0335 31.5524 92.5475 33.3765 92.5475Z" fill="white"/>
<path d="M52.0701 51.015H14.6754C13.7307 51.015 12.957 50.2229 12.957 49.2556C12.957 48.2883 13.7307 47.4962 14.6754 47.4962H52.0627C53.0074 47.4962 53.781 48.2883 53.781 49.2556C53.781 50.2229 53.0148 51.015 52.0701 51.015Z" fill="url(#paint2_linear_1_167)"/>
<path opacity="0.6" d="M45.7397 60.764H14.0506C13.448 60.764 12.9645 60.2613 12.9645 59.652V59.5302C12.9645 58.9132 13.4555 58.4182 14.0506 58.4182H45.7397C46.3423 58.4182 46.8258 58.9208 46.8258 59.5302V59.652C46.8332 60.2613 46.3423 60.764 45.7397 60.764Z" fill="url(#paint3_linear_1_167)"/>
<path opacity="0.3" d="M39.7068 66.9562H13.9464C13.4034 66.9562 12.957 66.4992 12.957 65.9432V65.6081C12.957 65.0521 13.4034 64.5951 13.9464 64.5951H39.6994C40.2424 64.5951 40.6888 65.0521 40.6888 65.6081V65.9432C40.6888 66.4992 40.2424 66.9562 39.7068 66.9562Z" fill="url(#paint4_linear_1_167)"/>
<path opacity="0.6" d="M42.9502 72.6914H14.0059C13.4332 72.6914 12.9645 72.2116 12.9645 71.6251V71.4119C12.9645 70.8254 13.4332 70.3456 14.0059 70.3456H42.9502C43.523 70.3456 43.9916 70.8254 43.9916 71.4119V71.6251C43.9916 72.204 43.523 72.6914 42.9502 72.6914Z" fill="url(#paint5_linear_1_167)"/>
<path d="M33.4409 26.1208C35.589 26.1208 37.3302 24.3141 37.3302 22.0854C37.3302 19.8566 35.589 18.05 33.4409 18.05C31.2929 18.05 29.5517 19.8566 29.5517 22.0854C29.5517 24.3141 31.2848 26.1208 33.4409 26.1208ZM33.4409 28.1385C30.8454 28.1385 25.6625 29.4892 25.6625 32.1739V33.1869C25.6625 33.7441 26.1018 34.2 26.6389 34.2H40.2593C40.7963 34.2 41.2357 33.7441 41.2357 33.1869V32.1739C41.2194 29.4977 36.0365 28.1385 33.4409 28.1385Z" fill="white"/>
</g>
<defs>
<linearGradient id="paint0_linear_1_167" x1="4.85993" y1="45.0301" x2="65.8991" y2="50.0759" gradientUnits="userSpaceOnUse">
<stop stop-color="#6CBCFC"/>
<stop offset="1" stop-color="#458DFC"/>
</linearGradient>
<linearGradient id="paint1_linear_1_167" x1="18.9325" y1="19.2924" x2="48.0933" y2="33.804" gradientUnits="userSpaceOnUse">
<stop stop-color="#B0F4FF"/>
<stop offset="0.0856277" stop-color="#A3F0FE"/>
<stop offset="0.2972" stop-color="#8AE7FD"/>
<stop offset="0.5161" stop-color="#77E1FD"/>
<stop offset="0.7451" stop-color="#6DDDFC"/>
<stop offset="1" stop-color="#69DCFC"/>
</linearGradient>
<linearGradient id="paint2_linear_1_167" x1="53.7846" y1="49.257" x2="12.964" y2="49.257" gradientUnits="userSpaceOnUse">
<stop stop-color="#6CBCFC"/>
<stop offset="1" stop-color="#458DFC"/>
</linearGradient>
<linearGradient id="paint3_linear_1_167" x1="46.8311" y1="59.5877" x2="12.9641" y2="59.5877" gradientUnits="userSpaceOnUse">
<stop stop-color="#6CBCFC"/>
<stop offset="1" stop-color="#458DFC"/>
</linearGradient>
<linearGradient id="paint4_linear_1_167" x1="40.6895" y1="65.7799" x2="12.964" y2="65.7799" gradientUnits="userSpaceOnUse">
<stop stop-color="#6888C8"/>
<stop offset="1" stop-color="#458DFC"/>
</linearGradient>
<linearGradient id="paint5_linear_1_167" x1="43.991" y1="71.5124" x2="12.9641" y2="71.5124" gradientUnits="userSpaceOnUse">
<stop stop-color="#6CBCFC"/>
<stop offset="1" stop-color="#458DFC"/>
</linearGradient>
<clipPath id="clip0_1_167">
<rect width="64.8884" height="95" fill="white" transform="translate(0.928558)"/>
</clipPath>
</defs>
</svg>

<svg width="66" height="95" fill="none" xmlns="http://www.w3.org/2000/svg"><g clip-path="url(#a)"><path d="M63.578 0H3.175C1.933 0 .93 1.028.93 2.3v90.407c0 1.272 1.004 2.3 2.246 2.3h60.403c1.242 0 2.246-1.028 2.246-2.3V2.3C65.817 1.028 64.813 0 63.578 0z" fill="url(#b)"/><path d="M59.613 4.098H7.133c-1.206 0-2.188 1.005-2.188 2.247v74.747c0 1.242.982 2.24 2.187 2.24h52.481c1.213 0 2.187-1.006 2.187-2.24V6.345c0-1.242-.974-2.247-2.187-2.247z" fill="#fff"/><path d="M44.103 39.636H22.65c-.982 0-1.778-.815-1.778-1.82V15.842c0-1.005.796-1.82 1.778-1.82h21.453c.982 0 1.778.815 1.778 1.82v21.966c0 1.005-.796 1.828-1.778 1.828z" fill="url(#c)"/><path d="M33.377 92.547c1.824 0 3.302-1.513 3.302-3.381 0-1.868-1.478-3.382-3.303-3.382-1.824 0-3.302 1.514-3.302 3.382s1.478 3.382 3.302 3.382z" fill="#fff"/><path d="M52.07 51.015H14.675c-.944 0-1.718-.792-1.718-1.76 0-.967.774-1.759 1.718-1.759h37.388c.944 0 1.718.792 1.718 1.76 0 .967-.766 1.759-1.71 1.759z" fill="url(#d)"/><path opacity=".6" d="M45.74 60.764H14.05c-.602 0-1.086-.503-1.086-1.112v-.122a1.1 1.1 0 0 1 1.087-1.112H45.74c.602 0 1.086.503 1.086 1.112v.122a1.096 1.096 0 0 1-1.086 1.112z" fill="url(#e)"/><path opacity=".3" d="M39.707 66.956h-25.76c-.544 0-.99-.457-.99-1.013v-.335c0-.556.446-1.013.99-1.013h25.752c.543 0 .99.457.99 1.013v.335c0 .556-.447 1.013-.982 1.013z" fill="url(#f)"/><path opacity=".6" d="M42.95 72.691H14.006c-.573 0-1.042-.48-1.042-1.066v-.213c0-.587.47-1.066 1.042-1.066H42.95c.573 0 1.042.48 1.042 1.066v.213c0 .579-.469 1.066-1.042 1.066z" fill="url(#g)"/><path d="M33.44 26.12c2.149 0 3.89-1.806 3.89-4.035 0-2.228-1.741-4.035-3.89-4.035-2.147 0-3.888 1.807-3.888 4.035 0 2.23 1.733 4.036 3.889 4.036zm0 2.018c-2.595 0-7.777 1.351-7.777 4.036v1.013c0 .557.439 1.013.976 1.013h13.62c.537 0 .977-.456.977-1.013v-1.013c-.017-2.676-5.2-4.035-7.795-4.035z" fill="#fff"/></g><defs><linearGradient id="b" x1="4.86" y1="45.03" x2="65.899" y2="50.076" gradientUnits="userSpaceOnUse"><stop stop-color="#6CBCFC"/><stop offset="1" stop-color="#458DFC"/></linearGradient><linearGradient id="c" x1="18.933" y1="19.292" x2="48.093" y2="33.804" gradientUnits="userSpaceOnUse"><stop stop-color="#B0F4FF"/><stop offset=".086" stop-color="#A3F0FE"/><stop offset=".297" stop-color="#8AE7FD"/><stop offset=".516" stop-color="#77E1FD"/><stop offset=".745" stop-color="#6DDDFC"/><stop offset="1" stop-color="#69DCFC"/></linearGradient><linearGradient id="d" x1="53.785" y1="49.257" x2="12.964" y2="49.257" gradientUnits="userSpaceOnUse"><stop stop-color="#6CBCFC"/><stop offset="1" stop-color="#458DFC"/></linearGradient><linearGradient id="e" x1="46.831" y1="59.588" x2="12.964" y2="59.588" gradientUnits="userSpaceOnUse"><stop stop-color="#6CBCFC"/><stop offset="1" stop-color="#458DFC"/></linearGradient><linearGradient id="f" x1="40.69" y1="65.78" x2="12.964" y2="65.78" gradientUnits="userSpaceOnUse"><stop stop-color="#6888C8"/><stop offset="1" stop-color="#458DFC"/></linearGradient><linearGradient id="g" x1="43.991" y1="71.512" x2="12.964" y2="71.512" gradientUnits="userSpaceOnUse"><stop stop-color="#6CBCFC"/><stop offset="1" stop-color="#458DFC"/></linearGradient><clipPath id="a"><path fill="#fff" transform="translate(.929)" d="M0 0h64.888v95H0z"/></clipPath></defs></svg>
